symbols/web/60fps/materialsymbolssharp/60fps_wght500grad200_20px.svg

<svg xmlns="http://www.w3.org/2000/svg" height="20" width="20"><path d="M1.062 16.375V3.625h7.584v3.563H4.604v.604h4.875v8.583Zm3.542-3.563h1.313v-1.479H4.604Zm8.625 0h2.167V7.188h-2.167Zm-3.541 3.563V3.625h9.25v12.75Z"/></svg>

<svg xmlns="http://www.w3.org/2000/svg" height="20" width="20"><path d="M1.062 16.375V3.625H8.646V7.188H4.604V7.792H9.479V16.375ZM4.604 12.812H5.917V11.333H4.604ZM13.229 12.812H15.396V7.188H13.229ZM9.688 16.375V3.625H18.938V16.375Z"/></svg>
